src/assets/flags/ph.svg

<?xml version="1.0" encoding="UTF-8"?>
<svg xmlns="http://www.w3.org/2000/svg" xmlns:xlink="http://www.w3.org/1999/xlink" width="25px" height="px" viewBox="0 0 25 19" version="1.1">
<g id="surface1">
<path style=" stroke:none;fill-rule:nonzero;fill:rgb(0%,21.960784%,65.882355%);fill-opacity:1;" d="M 0 0 L 25 0 L 25 9.5 L 0 9.5 Z M 0 0 "/>
<path style=" stroke:none;fill-rule:nonzero;fill:rgb(80.784315%,6.666667%,14.901961%);fill-opacity:1;" d="M 0 9.5 L 25 9.5 L 25 19 L 0 19 Z M 0 9.5 "/>
<path style=" stroke:none;fill-rule:nonzero;fill:rgb(100%,100%,100%);fill-opacity:1;" d="M 16.238281 9.5 L 0 19 L 0 0 "/>
<path style=" stroke:none;fill-rule:nonzero;fill:rgb(98.823529%,81.960785%,8.627451%);fill-opacity:1;" d="M 1.042969 1.679688 L 1.601562 2.175781 L 2.25 1.8125 L 1.960938 2.503906 L 2.507812 3.019531 L 1.765625 2.957031 L 1.449219 3.636719 L 1.28125 2.90625 L 0.546875 2.808594 L 1.183594 2.414062 Z M 13.691406 8.5 L 13.707031 9.25 L 14.410156 9.5 L 13.707031 9.746094 L 13.691406 10.496094 L 13.242188 9.898438 L 12.53125 10.117188 L 12.953125 9.5 L 12.53125 8.882812 L 13.242188 9.101562 Z M 1.453125 15.363281 L 1.765625 16.042969 L 2.507812 15.980469 L 1.964844 16.496094 L 2.253906 17.1875 L 1.605469 16.828125 L 1.042969 17.316406 L 1.183594 16.578125 L 0.546875 16.191406 L 1.285156 16.09375 Z M 5.914062 5.507812 L 5.671875 5.75 L 5.792969 7.613281 L 5.675781 7.625 L 5.453125 5.925781 L 5.253906 6.125 L 5.550781 7.644531 C 5.3125 7.691406 5.082031 7.789062 4.878906 7.925781 L 4.03125 6.640625 L 3.75 6.640625 L 4.78125 8 L 4.6875 8.078125 L 3.472656 6.671875 L 3.128906 6.671875 L 3.128906 7.023438 L 4.511719 8.25 L 4.433594 8.347656 L 3.09375 7.308594 L 3.09375 7.589844 L 4.363281 8.445312 C 4.226562 8.652344 4.136719 8.878906 4.085938 9.128906 L 2.589844 8.828125 L 2.390625 9.023438 L 4.066406 9.25 C 4.058594 9.292969 4.054688 9.332031 4.054688 9.375 L 2.21875 9.253906 L 1.976562 9.5 L 2.21875 9.746094 L 4.054688 9.621094 L 4.066406 9.746094 L 2.390625 9.972656 L 2.585938 10.167969 L 4.085938 9.867188 C 4.132812 10.109375 4.226562 10.34375 4.363281 10.550781 L 3.09375 11.40625 L 3.09375 11.691406 L 4.433594 10.652344 L 4.511719 10.746094 L 3.128906 11.972656 L 3.128906 12.324219 L 3.476562 12.324219 L 4.6875 10.921875 L 4.785156 11 L 3.75 12.359375 L 4.03125 12.359375 L 4.878906 11.070312 C 5.082031 11.207031 5.304688 11.300781 5.550781 11.351562 L 5.253906 12.871094 L 5.449219 13.070312 L 5.671875 11.371094 C 5.710938 11.378906 5.75 11.382812 5.792969 11.382812 L 5.675781 13.246094 L 5.914062 13.488281 L 6.160156 13.246094 L 6.039062 11.382812 L 6.15625 11.371094 L 6.378906 13.074219 L 6.578125 12.871094 L 6.28125 11.351562 C 6.519531 11.304688 6.75 11.207031 6.953125 11.070312 L 7.800781 12.359375 L 8.082031 12.359375 L 7.050781 11 L 7.144531 10.921875 L 8.359375 12.324219 L 8.703125 12.324219 L 8.703125 11.972656 L 7.320312 10.746094 L 7.398438 10.652344 L 8.738281 11.691406 L 8.738281 11.40625 L 7.46875 10.550781 C 7.605469 10.34375 7.695312 10.117188 7.746094 9.867188 L 9.242188 10.167969 L 9.441406 9.972656 L 7.765625 9.746094 C 7.773438 9.707031 7.777344 9.664062 7.777344 9.621094 L 9.613281 9.742188 L 9.855469 9.5 L 9.613281 9.253906 L 7.777344 9.375 L 7.765625 9.253906 L 9.441406 9.027344 L 9.246094 8.832031 L 7.746094 9.128906 C 7.699219 8.886719 7.605469 8.652344 7.46875 8.445312 L 8.738281 7.589844 L 8.738281 7.308594 L 7.398438 8.347656 L 7.320312 8.253906 L 8.703125 7.027344 L 8.703125 6.671875 L 8.359375 6.671875 L 7.148438 8.078125 L 7.050781 8 L 8.082031 6.640625 L 7.800781 6.640625 L 6.953125 7.925781 C 6.75 7.789062 6.527344 7.695312 6.28125 7.644531 L 6.578125 6.128906 L 6.382812 5.929688 L 6.160156 7.625 L 6.039062 7.613281 L 6.15625 5.75 Z M 5.914062 5.507812 "/>
</g>
</svg>

<svg xmlns="http://www.w3.org/2000/svg" width="25" height="px" viewBox="0 0 25 19"><path d="M0 0h25v9.5H0Zm0 0" style="stroke:none;fill-rule:nonzero;fill:#0038a8;fill-opacity:1"/><path d="M0 9.5h25V19H0Zm0 0" style="stroke:none;fill-rule:nonzero;fill:#ce1126;fill-opacity:1"/><path d="M16.238 9.5 0 19V0" style="stroke:none;fill-rule:nonzero;fill:#fff;fill-opacity:1"/><path d="m1.043 1.68.559.496.648-.364-.29.692.548.516-.742-.063-.317.68-.168-.73-.734-.098.637-.395ZM13.691 8.5l.016.75.703.25-.703.246-.016.75-.449-.598-.71.22.421-.618-.422-.617.711.219ZM1.453 15.363l.313.68.742-.063-.543.516.289.692-.649-.36-.562.488.14-.738-.636-.387.738-.097Zm4.461-9.855-.242.242.121 1.863-.117.012-.223-1.7-.2.2.298 1.52a1.9 1.9 0 0 0-.672.28L4.03 6.642H3.75L4.781 8l-.093.078-1.215-1.406h-.344v.351L4.512 8.25l-.078.098-1.34-1.04v.282l1.27.855a1.9 1.9 0 0 0-.278.684l-1.496-.3-.2.194 1.676.227a1 1 0 0 0-.011.125l-1.836-.121-.242.246.242.246 1.836-.125.011.125-1.675.227.195.195 1.5-.3c.047.241.14.476.277.683l-1.27.855v.285l1.34-1.039.079.094-1.383 1.227v.351h.348l1.21-1.402.098.078-1.035 1.36h.281l.848-1.29q.304.205.672.282l-.297 1.52.195.198.223-1.699q.057.012.121.012l-.117 1.863.238.242.246-.242-.12-1.863.116-.012.223 1.703.2-.203-.298-1.52c.239-.046.469-.144.672-.28l.848 1.288h.281L7.051 11l.094-.078 1.214 1.402h.344v-.351L7.32 10.746l.078-.094 1.34 1.04v-.286l-1.27-.855c.137-.207.227-.434.278-.684l1.496.301.2-.195-1.676-.227a.7.7 0 0 0 .011-.125l1.836.121.242-.242-.242-.246-1.836.121-.011-.121 1.675-.227-.195-.195-1.5.297a1.9 1.9 0 0 0-.277-.684l1.27-.855v-.281l-1.34 1.039-.079-.094 1.383-1.227v-.355H8.36L7.15 8.078 7.05 8l1.031-1.36h-.281l-.848 1.286a1.9 1.9 0 0 0-.672-.281l.297-1.516-.195-.2-.223 1.696-.12-.012.116-1.863Zm0 0" style="stroke:none;fill-rule:nonzero;fill:#fcd116;fill-opacity:1"/></svg>
